X:1
T:The School Of Velocity
T:Carl Czerny (1791 - 1857 )
T:Op. 299, No. 2
%%score { ( 1 3 ) | 2 }
L:1/8
Q:1/4=80
M:4/4
K:C
V:1 treble nm="Piano"
V:3 treble 
V:2 bass 
V:1
"C""^2.""^Updated Sep 15, 2014" !1!!5![Ec]4 [Ec]2 [Ec]2 | %1
"Gsus4" !1!!4![Fc]4"G/D" !3!B/c/B/A/ !1!B/c/d/e/ |"G/D" f z z2 [Fd]2 [Fd]2 | %3
"C/E" ([Gd]4 !3!c/d/c/B/ !1!c/d/e/f/ |"C/E" g) z z2 [Ge]2 [Ge]2 | %5
"F" (!4![Ae]4 !3!d/e/d/^c/ !1!d/e/f/g/ |"F" a) z z2 !5![Af]2 [Af]2 | %7
"G7" !2!!5![Bf]4 !5!f'/e'/d'/c'/ !1!b/!4!a/g/f/ |"C" [ee']4"G7/D" !2!!4![fb]4 | %9
"C/E" !1!!5![gc']4"F" !2!!4![fa]4 |"G7" !4!f8 | !5!g3 !4!f"C" e4 | %12
"Dm/F" z/ !1!d/e/!3!f/ !1!g/a/b/^c'/ !5!d'/!1!f/g/!3!a/ !1!b/c'/d'/e'/ | %13
!8va(! !5!f'/!1!a/b/^c'/ !1!d'/e'/f'/!4!g'/ !5!a'/g'/f'/e'/ !4!g'/f'/e'/d'/ |"C/G" !2!!4![e'g']8- | %15
"C/E" [e'g']2 !5![c'e'g']2"C" [c'e'g']2 [c'e'g']2 |"C/G" [c'e'g'] z z2"C/E" !2![e'g'c''] z z2 | %17
"C" !3![g'c''e'']!8va)! z z2 z4 | z8 |"C/G" z2 [Gceg] z"G7" z2 [DFGB] z | %20
"C" [EGc]2 z2 [cegc']2 z2 |] %21
V:2
 z/ !5!C,,/D,,/E,,/ F,,/!1!G,,/!3!A,,/B,,/ !1!C,/!4!D,/E,/F,/ !1!G,/!3!A,/B,/C/ | %1
 z/ !5!D,/E,/F,/ G,/!1!A,/!3!B,/C/ D/ z/ z z2 | %2
 z/ !5!D,,/E,,/F,,/ G,,/!1!A,,/!3!B,,/C,/ !1!D,/!4!E,/F,/G,/ !1!A,/!3!B,/C/D/ | %3
 z/ !5!E,/F,/G,/ A,/!1!B,/!3!C/D/ E z z2 | %4
 z/ !5!E,,/F,,/G,,/ A,,/!1!B,,/!3!C,/D,/ !1!E,/!4!F,/G,/A,/ !1!B,/!3!C/D/E/ | %5
 z/ !5!F,/G,/A,/ B,/!1!C/!3!D/E/ F z z2 | %6
 z/ !5!F,,/G,,/A,,/ B,,/C,/D,/E,/ !1!F,/!4!G,/A,/B,/ !1!C/!3!D/E/F/ | %7
 z/ !5!G,/A,/B,/ C/!1!D/!3!E/F/ G/ z/ z z2 | %8
 !5!C,/D,/E,/F,/ !1!G,/!3!A,/B,/C/ !5!D,/E,/F,/G,/ !1!A,/!3!B,/C/D/ | %9
 !5!E,/F,/G,/A,/ B,/!3!C/D/E/ !5!F,/G,/A,/B,/ C/!3!D/E/F/ | %10
[K:treble] !5!G,/A,/B,/C/ D/!3!E/F/G/ A,/B,/C/D/ E/!3!F/G/A/ | %11
 B,/C/D/E/ F/G/A/B/ C/D/E/F/ G/A/B/c/ | !4!!2![FA] z/ z2 z !5!D/E/F/ G/!1!A/!3!B/^c/ | %13
 !1!d/!5!F/!4!G/!3!A/ !1!B/!4!^c/d/e/ f z z2 | %14
 z/ !1!g/f/!3!e/ !1!d/=c/B/!4!A/ !5!G/!1!e/d/c/ !1!B/A/G/F/ | %15
 !5!E/!1!c/B/A/ !1!G/F/E/D/ !5!C/!1!G/F/E/ !1!D/C/B,/A,/ | %16
[K:bass] G,/E/D/C/ !1!B,/A,/G,/F,/ E,/C/B,/A,/ !1!G,/F,/E,/D,/ | %17
 C,/G,/F,/E,/ !1!D,/C,/B,,/A,,/ G,,/E,/D,/C,/ B,,/A,,/G,,/F,,/ | %18
 E,,/C,/B,,/A,,/ !1!G,,/F,,/E,,/D,,/ C,,/G,,/F,,/E,,/ !1!D,,/C,,/B,,,/A,,,/ | %19
 G,,, z z2 [G,,G,] z z2 | [C,G,C]2 z2 [C,,E,,G,,C,]2 z2 |] %21
V:3
 x8 | x8 | x8 | x8 | x8 | x8 | x8 | x8 | x8 | x8 | !1!B4"Am" !2!c4 |"G7/B" !1!d4 !3!e4 | x8 | %13
!8va(! x8 | x8 | x8 | x8 | x!8va)! x7 | x8 | x8 | x8 |] %21

